assets/ios/swift/Icons.xcassets/chevronDown.imageset/chevronDown.svg

<svg width="24" height="24" viewBox="0 0 24 24" fill="none" xmlns="http://www.w3.org/2000/svg">
<path d="M12 14.9499C11.8667 14.9499 11.7417 14.9291 11.625 14.8874C11.5084 14.8457 11.4 14.7749 11.3 14.6749L6.70005 10.0749C6.51672 9.89157 6.42505 9.65824 6.42505 9.3749C6.42505 9.09157 6.51672 8.85824 6.70005 8.6749C6.88338 8.49157 7.11672 8.3999 7.40005 8.3999C7.68338 8.3999 7.91672 8.49157 8.10005 8.6749L12 12.5749L15.9 8.6749C16.0834 8.49157 16.3167 8.3999 16.6 8.3999C16.8834 8.3999 17.1167 8.49157 17.3 8.6749C17.4834 8.85824 17.575 9.09157 17.575 9.3749C17.575 9.65824 17.4834 9.89157 17.3 10.0749L12.7 14.6749C12.6 14.7749 12.4917 14.8457 12.375 14.8874C12.2584 14.9291 12.1334 14.9499 12 14.9499Z" fill="black"/>
</svg>

<svg xmlns="http://www.w3.org/2000/svg" width="24" height="24" fill="black" viewBox="0 0 24 24">
  <path d="M12 14.95c-.133 0-.258-.02-.375-.063a.878.878 0 0 1-.325-.212l-4.6-4.6a.948.948 0 0 1-.275-.7.95.95 0 0 1 .275-.7.948.948 0 0 1 .7-.275.95.95 0 0 1 .7.275l3.9 3.9 3.9-3.9a.948.948 0 0 1 .7-.275.95.95 0 0 1 .7.275.948.948 0 0 1 .275.7.948.948 0 0 1-.275.7l-4.6 4.6c-.1.1-.208.17-.325.212a1.105 1.105 0 0 1-.375.063Z"/>
</svg>
